packages/ffe-icons/icons/filled/md/nest_clock_farsight_analog.svg

<svg xmlns="http://www.w3.org/2000/svg" height="24" viewBox="0 -960 960 960" width="24"><path d="M509.999-468.769v-142.77q0-12.75-8.628-21.375-8.629-8.625-21.384-8.625-12.756 0-21.371 8.625-8.615 8.625-8.615 21.375v152.231q0 7.064 2.615 13.686t8.231 12.237l107.154 107.154q8.923 8.923 21.384 9.115 12.461.193 21.384-9.115 8.308-8.923 8.308-21.191 0-12.269-8.308-20.577l-100.77-100.77ZM480.013-720q12.756 0 21.371-8.625 8.615-8.625 8.615-21.374v-20.002q0-12.749-8.628-21.374Q492.742-800 479.987-800q-12.756 0-21.371 8.625-8.615 8.625-8.615 21.374v20.002q0 12.749 8.628 21.374Q467.258-720 480.013-720ZM720-479.987q0 12.756 8.625 21.371 8.625 8.615 21.374 8.615h20.002q12.749 0 21.374-8.628Q800-467.258 800-480.013q0-12.756-8.625-21.371-8.625-8.615-21.374-8.615h-20.002q-12.749 0-21.374 8.628Q720-492.742 720-479.987ZM479.987-240q-12.756 0-21.371 8.625-8.615 8.625-8.615 21.374v20.002q0 12.749 8.628 21.374Q467.258-160 480.013-160q12.756 0 21.371-8.625 8.615-8.625 8.615-21.374v-20.002q0-12.749-8.628-21.374Q492.742-240 479.987-240ZM240-480.013q0-12.756-8.625-21.371-8.625-8.615-21.374-8.615h-20.002q-12.749 0-21.374 8.628Q160-492.742 160-479.987q0 12.756 8.625 21.371 8.625 8.615 21.374 8.615h20.002q12.749 0 21.374-8.628Q240-467.258 240-480.013Zm240.067 380.012q-78.836 0-148.204-29.92-69.369-29.92-120.682-81.21-51.314-51.291-81.247-120.629-29.933-69.337-29.933-148.173t29.92-148.204q29.92-69.369 81.21-120.682 51.291-51.314 120.629-81.247 69.337-29.933 148.173-29.933t148.204 29.92q69.369 29.92 120.682 81.21 51.314 51.291 81.247 120.629 29.933 69.337 29.933 148.173t-29.92 148.204q-29.92 69.369-81.21 120.682-51.291 51.314-120.629 81.247-69.337 29.933-148.173 29.933Z"/></svg>

<svg xmlns="http://www.w3.org/2000/svg" height="24" viewBox="0 -960 960 960" width="24"><path d="M510-468.77v-142.77q0-12.75-8.63-21.37-8.63-8.63-21.38-8.63-12.76 0-21.37 8.63-8.62 8.62-8.62 21.37v152.23q0 7.07 2.62 13.69 2.61 6.62 8.23 12.23L568-326.23q8.92 8.92 21.39 9.11 12.46.2 21.38-9.11 8.31-8.92 8.31-21.19 0-12.27-8.31-20.58L510-468.77ZM480.01-720q12.76 0 21.37-8.62Q510-737.25 510-750v-20q0-12.75-8.63-21.38-8.63-8.62-21.38-8.62-12.76 0-21.37 8.62Q450-782.75 450-770v20q0 12.75 8.63 21.38 8.63 8.62 21.38 8.62ZM720-479.99q0 12.76 8.62 21.37Q737.25-450 750-450h20q12.75 0 21.38-8.63 8.62-8.63 8.62-21.38 0-12.76-8.62-21.37Q782.75-510 770-510h-20q-12.75 0-21.38 8.63-8.62 8.63-8.62 21.38ZM479.99-240q-12.76 0-21.37 8.62Q450-222.75 450-210v20q0 12.75 8.63 21.38 8.63 8.62 21.38 8.62 12.76 0 21.37-8.62Q510-177.25 510-190v-20q0-12.75-8.63-21.38-8.63-8.62-21.38-8.62ZM240-480.01q0-12.76-8.62-21.37Q222.75-510 210-510h-20q-12.75 0-21.38 8.63-8.62 8.63-8.62 21.38 0 12.76 8.62 21.37Q177.25-450 190-450h20q12.75 0 21.38-8.63 8.62-8.63 8.62-21.38ZM480.07-100q-78.84 0-148.21-29.92t-120.68-81.21q-51.31-51.29-81.25-120.63Q100-401.1 100-479.93q0-78.84 29.92-148.21t81.21-120.68q51.29-51.31 120.63-81.25Q401.1-860 479.93-860q78.84 0 148.21 29.92t120.68 81.21q51.31 51.29 81.25 120.63Q860-558.9 860-480.07q0 78.84-29.92 148.21t-81.21 120.68q-51.29 51.31-120.63 81.25Q558.9-100 480.07-100Z"/></svg>
